brandFactory_export/3.Masa/Flecha Abajo Derecha_3Masa.svg

<?xml version="1.0" encoding="UTF-8"?>
<svg width="24px" height="24px" viewBox="0 0 24 24" version="1.1" xmlns="http://www.w3.org/2000/svg" xmlns:xlink="http://www.w3.org/1999/xlink">
    <title>3.Masa/Flecha Abajo Derecha_3Masa</title>
    <g id="Symbols" stroke="none" stroke-width="1" fill="none" fill-rule="evenodd">
        <g id="3.Masa/Flecha-Abajo-Derecha_3Masa" fill="#5CB615" fill-rule="nonzero">
            <path d="M2.01008403,9.94621849 L2.01008403,9.91932773 C2.01680672,9.44537815 2.24201681,8.98487395 2.68235294,8.54789916 L8.71260504,2.4907563 L8.73277311,2.47058824 C9.14957983,2.08739496 9.58319328,1.94285714 10.0268908,2.03697479 C10.4302521,2.12436975 10.7529412,2.4 11.0151261,2.66218487 L11.0319328,2.6789916 L16.8067227,8.81680672 L19.902521,5.7210084 L19.912605,5.71092437 C20.3092437,5.33109244 20.9848739,5.22016807 21.5193277,5.4487395 C22.0168067,5.6605042 22.312605,6.12773109 22.312605,6.69579832 L22.312605,21.2033613 C22.3361345,21.5394958 22.2285714,21.8420168 22.0067227,22.0638655 C21.7848739,22.2857143 21.4789916,22.3932773 21.1462185,22.3663866 L6.57142857,22.3596639 C6.07394958,22.3731092 5.62016807,22.0806723 5.42521008,21.6235294 C5.17983193,21.0756303 5.2907563,20.3630252 5.68403361,19.9361345 L5.70084034,19.9159664 L8.55462185,17.0621849 L2.66890756,11.3142857 L2.66218487,11.307563 C2.22857143,10.8840336 2.01008403,10.4235294 2.01008403,9.94621849 Z" id="Path"></path>
        </g>
    </g>
</svg>

<svg width="24" height="24" viewBox="0 0 24 24" xmlns="http://www.w3.org/2000/svg"><path d="M2.01 9.946V9.92c.007-.474.232-.934.672-1.371l6.03-6.057.02-.02c.418-.384.851-.528 1.295-.434.403.087.726.363.988.625l.017.017 5.775 6.138 3.096-3.096.01-.01c.396-.38 1.072-.49 1.606-.262.498.212.794.679.794 1.247v14.507c.023.336-.084.639-.306.86-.222.223-.528.33-.86.303L6.57 22.36a1.21 1.21 0 01-1.146-.736c-.245-.548-.134-1.261.259-1.688l.017-.02 2.854-2.854-5.886-5.748-.007-.006c-.433-.424-.652-.884-.652-1.362z" fill="#5CB615" fill-rule="nonzero"/></svg>
